!!!SOCIAL_FUNCTION:	dance songs
!!!PDT:	1943
!!!OTL: No_41_Dance_Song_(b).krn
!!!REG: British Columbia
**kern	**kern
*staff2	*staff1
=1-	=1-
=	=
*clefF4	*clefF4
*k[f#c#]	*k[f#c#]
*M2/4	*M2/4
4GG/	2f#\
4GG/	.
=2||	=2||
*M3/8	*M3/8
4GG/	8f#\L
.	8e\
8r	8d\J
=3	=3
*M5/8	*M5/8
3...r	4e\
.	8B\L
.	8d\
.	8d\J
=4	=4
*M2/4	*M2/4
2r	2B\
=5	=5
2r	4B\
.	8B\
.	8r
=6	=6
2r	8.f#\L
.	16d\Jk
.	8f#\L
.	8f#\J
=7	=7
2r	2e\
=8	=8
2r	4e\
.	8.e\L
.	16e\Jk
=9	=9
2r	8e\L
.	8B\J
.	8d\L
.	8d\J
=10	=10
2r	2B\
=11	=11
2r	4B\
.	8B\
.	8r
=12	=12
2r	4f#\
.	8e\L
.	8f#\J
=13	=13
*M3/4	*M3/4
2.r	8f#\L
.	[8e\J
.	8e\L]
.	8d\J
.	8e\L
.	8e\J
=14	=14
*M2/4	*M2/4
2r	[2d\
=15	=15
2r	4d\]
.	8B\
.	8r
=16	=16
2r	8.d\L
.	16d\Jk
.	8e\L
.	8d\J
=17	=17
2r	2d\
=18	=18
2r	4d\
.	8.d\L
.	16d\Jk
=19	=19
2r	8d\L
.	8B\J
.	8d\L
.	8d\J
=20	=20
2r	4..B\
.	16B\
=21	=21
2r	4B\
.	8B\
.	8r
=22	=22
2r	8.d\L
.	16B\Jk
.	8d\L
.	8d\J
==:|!	==:|!
*-	*-
